X:176
T: NUR EIN WANDERN IST DAS LEBEN
N: B0663
O: Europa, Mitteleuropa, Deutschland
R: Wander -, Moral - Lied, Vergaenglichkeit
M: 3/4
L: 1/16
K: F
F2G2 | A4A4B2A2 | A2G2G4
G2A2 | B6AGc3B | A8
d3c | c3BB4B3A | A3GG4
G2^G2 | A6dcB3B | A8
c3c | f6edc2B2 | A8
G2d2 | c6BAG2dc | c8
F2G2 | A4A4G2BA | F8

@@@ Tune index: 2394
